X:1
T:Joy to the world
T:Joy to the world
T:G.F. Haendel
%%score [ 1 2 3 4 ]
L:1/8
Q:1/4=80
M:2/4
K:D
V:1 treble nm="Soprano"
V:2 treble nm="Alto"
V:3 treble-8 nm="Tenore"
V:4 bass nm="Basso"
V:1
"D" d2 c>B | A3"Em" G |"D" F2"A" E2 |"D" D3 A |"G" B3 B |"A" c3 c |"D" d3 d | dc BA | A>GF d | %9
w: 1.~Joy to the|world! the|Lord is|come: let|Earth re-|ceive her|King, Let|ev'- * ry *|heart * * pre-|
w: 2.~Joy to the|word! the|Sa- vior|reigns: Let|men their|songs em-|ploy, While|fields * and *|floods, * * rocks,|
w: 3.~No more let|sin and|sor- row|grow, Nor|thorns in-|fest the|ground; He|comes * to *|make * * His|
w: 4.~He rules the|world with|truth and|grace, And|makes the|na- tions|prove The|glo- * ries *|of * * His|
 dc BA | A>GF F | FF FF/G/ | A3 G/F/ |"A" EE EE/F/ | G3 F/E/ |"D" D d2 B | A>GF"Em" G | %17
w: pare * Him *|room, * * and|Heav'n and na- ture *|sing, And *|Heav'n and na- ture *|sing, And *|Heav'n * and|Hea- * ven and|
w: hills * and *|plains, * * Re-|peat the sound- ing *|joy, Re *|peat the sound- ing *|joy, Re *|peat, * re-|peat * * the|
w: bless * ings *|flow * * Far|as the curse is *|found, Far *|as, the curse is *|found, Far *|as, * far|as * * the|
w: right- * eous *|ness * * And|won- ders of his *|love, And *|won- ders of is *|love, And *|won- * ders,|won- * * ders|
"D" F2"A" E2 |"D" D4!D.C.! |] %19
w: na- ture|sing.|
w: sound- ing|joy.|
w: curse is|found.|
w: of His|love.|
V:2
 F2 A>G | F3 E | D2 C2 | D3 F | G3 G | E3 E | F3 F | FA GF | F>ED F | FA GF | F>ED D | DD DE/F/ | %12
w: 1.~Joy to the|world, the|Lord is|come! let|Earth re-|ceive her-|King, Let|ev'- * ry *|heart * * pre-|pare * Him *|room, * * and|Heav'n and na- ture *|
w: 2.~Joy to the|world the|Sa- vior|reigns: Let|men their|songs em-|ploy, While|fields * and *|floods, * * rocks,|hills * and *|plains, * * Re-|peat the sound- ing *|
w: 3.~No more let|sin and|sor- row|grow, Nor|thorns in-|fest the|grounds; He|comes * to *|make * * His|bless * ings *|flow * * Far|as the curse is *|
w: 4.~He rules the|world with|truth and|grace, And|makes the|na- tions|prove The|glo- * ries *|of * * His|right- * eous *|ness * * And|won- ders of his *|
 F3 E/D/ | CC CC/D/ | E3 D/C/ | D F2 G | F>ED E | D2 C2 | D4 |] %19
w: sing, and *|Heav'n- and- na- ture *|sing,- and *|Hea- ven and|Hea- * ven and|na- ture|sing.|
w: joy, Re *|peat the sound- ing *|joy, Re *|peat, * re-|peat * * the|sound- ing|joy.|
w: found, Far *|as, the curse is *|found, Far *|as, * far|as * * the|curse is|found.|
w: love, And *|won- ders of is *|love, And *|won * ders,|won- * * ders|of His|love.|
V:3
 d2 d>d | d3 B | A2 G2 | F3 d | d3 d | A3 A | A3 A | A2 d2 | d3 A | A2 d2 | d2 z2 | z2 z A | %12
w: 1.~Joy to the|world, the|Lord is|come! let|Earth re-|ceive her|King, Let|ev' ry|heart pre-|pare Him|room,|and|
w: 2.~Joy to the|world the|Sa- vior|reigns: Let|men their|songs em-|ploy, While|fields and|floods, rocks,|hills and|plains,|Re-|
w: 3.~No more let|sin and|sor- row|grow, Nor|thorns in-|fest the|grounds, He|comes to|make His|bless ings|flow|Far|
w: 4.~He rules the|world with|truth and|grace, And|makes the|na- tions|prove The|glo- ries|of His|right- eous|ness|and|
 AA AA | A3 A | AA AA | A3 d | d3 B | A2 A2 | F4 |] %19
w: Heav'n and na- ture|sing, and|Heav'n and na- ture|sing, and|Hea- v'n~and|na- ture|sing.|
w: peat the sound- ing|joy, re-|peat the sound- ing|joy, re-|peat the|sound- ing|joy.|
w: as, the curse is|found, Far|as the curse is|found, Far|as the|curse is|found.|
w: won- ders of is|love, and|won- ders of is|love and|won- ders|of is|love.|
V:4
 D,2 D,>D, | D,3 G,, | A,,2 A,,2 | D,3 F, | G,3 G, | A,3 A, | D,3 D, | D,2 D,2 | D,3 D, | D,2 D,2 | %10
w: 1.~Joy to the|world, the|Lord is|come! let|Earth re-|ceive her|King, Let|ev' ry|heart pre-|pare Him|
w: 2.~Joy to the|world the|sa- vior|reigns: Let|men their|songs em-|ploy, While|fields and|floods, rocks,|hills and|
w: 3.~No more let|sin and|sor- row|grow, Nor|thorns in-|fest the|grounds, He|comes to|make His|bless ings|
w: 4.~He rules the|world with|truth and|grace, And|makes the|na- tions|prove The|glo- ries|of His|right- eous|
 D,2 z2 | z2 z D, | D,D, D,D, | A,,3 A,, | A,,A,, A,,A,, | D,3 D, | D,3 G,, | A,,2 A,,2 | D,4 |] %19
w: room,|and|Heav'n and na- ture|sing, and|Heav'n and na- ture|sing, and|Hea- v'n~and|na- ture|sing.|
w: plains,|Re-|peat the sound- ing|joy, re-|peat the sound- ing|joy, re-|peat the|sound- ing|joy.|
w: flow|Far|as, the curse is|found, Far|as the curse is|found, Far|as the|curse is|found.|
w: ness|and|won- ders of is|love, and|won- ders of is|love and|won- ders|of is|love.|

